build/system/SmallArrowUpOutline.svg

<svg xmlns="http://www.w3.org/2000/svg" fill="none" viewBox="0 0 24 24" focusable="false"><path d="M0 0H24V24H0z"/><path fill="#74767B" d="M16.2113 14.0037C16.2113 14.1837 16.1413 14.3537 16.0013 14.4837C15.7313 14.7237 15.3213 14.7037 15.0813 14.4437L11.935 10.9506L8.91724 14.4398C8.67724 14.7098 8.26724 14.7198 7.99724 14.4798C7.73724 14.2398 7.71724 13.8298 7.95724 13.5598L11.415 9.58058C11.695 9.27058 12.175 9.27058 12.455 9.58058L16.0413 13.5637C16.1613 13.6937 16.2113 13.8437 16.2113 14.0037Z"/></svg>

<svg xmlns="http://www.w3.org/2000/svg" fill="none" viewBox="0 0 24 24" focusable="false"><path fill="#74767B" d="M16.21 14c0 .18-.07.35-.21.48-.27.24-.68.22-.92-.04l-3.15-3.49-3.02 3.48a.65.65 0 0 1-.92.04.66.66 0 0 1-.04-.92l3.46-3.97c.28-.31.76-.31 1.04 0l3.59 3.98c.12.13.17.28.17.44"/></svg>
